X:1
T:The Otters Holt
M:C
L:1/8
Q:80
C:Arr. by T. Tully
S:Reel
K:HP
|: e | \
fB{g}B{G}B{g}BA{g}G{d}B | \
{g}A{d}A{g}G{d}B{g}A{d}A{g}de | \
fB{g}B{G}B{g}BA{g}GA |
{g}Bd{gcd}cAB{e}B{G}BefB{g}B{G}B{g}BA{g}G{d}B | \
{g}A{d}A{g}G{d}B{g}A{d}A{g}de | \
{g}fa{g}af{g}eg{a}fe |
d{e}d{c}dc{Gdc}d3|] [ | \
c | \
d{e}d{c}de{gfg}f2df | \
a{g}a{g}af{g}ef{g}fe |
d{e}d{c}de{gfg}f2df | \
a{g}a{g}af{g}ef{g}fed{e}d{c}de{gfg}f2df | \
a{g}a{g}af{g}ef{g}de |
fB{g}B{G}B{g}BA{g}GA | \
{g}Bd{gcd}cAB{e}B{G}B|] [ | \
e |
fB{gBeBG}B2{g}BA{g}G{d}B | \
{gAGAG}A2{g}G{d}B{gAGAG}A2{g}de | \
fB{gBeBG}B2{g}BA{g}GA |
{g}((3Bcd){gcd}cAB{e}B{G}BefB{gBeBG}B2{g}BA{g}G{d}B | \
{gAGAG}A2{g}G{d}B{gAGAG}A2{g}de | \
{g}fa{g}af{g}eg{a}fe |
{gdedc}d2{g}dc{Gdc}d3|] [ | \
A | \
{gdedc}d2{g}de{gfg}f2de | \
"flick"a3f{g}ef{g}fe |
{gdedc}d2{g}de{gfg}f2df | \
"flick"a3f{g}ef{g}fe{gdedc}d2{g}de{gfg}f2df | \
"flick"a3f{g}ef{g}de |
fB{gBeBG}B2{g}BA{g}GA | \
{g}((3Bcd){gcd}cAB{e}B{G}B|]
